assets/business-color/BusinessColor37.svg

<svg xmlns="http://www.w3.org/2000/svg" id="Layer_1" x="0" y="0" version="1.1" viewBox="0 0 256 256" xml:space="preserve"><style>.st0{fill:#dbfdff}.st1{fill:#febe7f}.st2{fill:#fff}.st3{fill:#9feaff}.st4{fill:#ffffed}.st5{fill:#48386a}.st6{fill:#ff8584}</style><path d="M245.6 125.3c0-19.7-11.2-36.7-27.6-45 1.5-4.8 2.3-9.9 2.3-15.2 0-27.9-22.6-50.5-50.5-50.5-14.2 0-27 5.8-36.2 15.2-9.2-9.4-22-15.2-36.2-15.2C69.6 14.5 47 37.1 47 65c0 1.8.1 3.6.3 5.4-22.9 4.8-40 25.1-40 49.4 0 12.7 4.7 24.2 12.4 33.1C12 161.8 7.3 173.3 7.3 186c0 27.9 22.6 50.5 50.5 50.5 16.7 0 31.5-8.1 40.7-20.6 9.3 11 23.1 17.9 38.6 17.9 11.8 0 22.7-4.1 31.3-10.9 7 3.7 15 5.8 23.5 5.8 27.9 0 50.5-22.6 50.5-50.5 0-8.7-2.2-16.8-6-24 5.8-8.1 9.2-18.1 9.2-28.9zM95.9 152.9l.6-.6c.2.1.3.3.5.4-.2.2-.4.5-.6.7-.2-.1-.3-.3-.5-.5z" class="st0"/><path d="M56.5 199.6H39.9v-13.5h40.8v6.7h102v-6.7h40.8v13.5H64.4z" class="st1"/><path d="M179.7 174.7V78.2h-102v114.6h102V181z" class="st2"/><path d="M171.9 37.9h70.3c5.4 0 9.8 4.4 9.8 9.8v34.6c0 5.4-4.4 9.8-9.8 9.8h-62.5V78.2h-102v13.9H15.2c-5.4 0-9.8-4.4-9.8-9.8V47.7c0-5.4 4.4-9.8 9.8-9.8h156.7z" class="st2"/><path d="M191.8 67.2v24.9h-9.1V78.2h-102v13.9h-9.1V67.2z" class="st3"/><path d="M179.7 174.7V78.2h-102v114.6h102V181z" class="st4"/><path d="M179.7 193.8h-102c-.6 0-1-.4-1-1V78.2c0-.6.4-1 1-1h101.9c.6 0 1 .4 1 1v96.5c0 .6-.4 1-1 1s-1-.4-1-1V79.2H78.7v112.6h99.9V181c0-.6.4-1 1-1s1 .4 1 1v11.8c.1.6-.4 1-.9 1z" class="st5"/><path d="M36.9 152.8h40.9v13.6H36.9z" class="st2"/><path d="M179.7 152.8h40.9v13.6h-40.9z" class="st3"/><path d="M25.1 118.3V92.1h11.8v120.1c0 3.3-2.6 5.9-5.9 5.9-3.3 0-5.9-2.6-5.9-5.9v-93.9zM220.5 108.6V92.1h11.8v120.1c0 3.3-2.6 5.9-5.9 5.9-3.3 0-5.9-2.6-5.9-5.9V108.6z" class="st2"/><path d="M252 47.7v34.6c0 5.4-4.4 9.8-9.8 9.8h-39.6V37.9h39.6c5.4 0 9.8 4.4 9.8 9.8zM5.4 82.3V47.7c0-5.4 4.4-9.8 9.8-9.8h39.6v54.3H15.2c-5.4-.1-9.8-4.5-9.8-9.9z" class="st4"/><path d="M88 58.5H57.8v-8.4h147.8v8.4H95.2z" class="st1"/><path d="M242.2 93.1h-62.5c-.6 0-1-.4-1-1V79.2h-100v12.9c0 .6-.4 1-1 1H15.2c-6 0-10.8-4.9-10.8-10.8V47.7c0-6 4.9-10.8 10.8-10.8h150.7c.6 0 1 .4 1 1s-.4 1-1 1H15.2c-4.9 0-8.8 4-8.8 8.8v34.6c0 4.9 4 8.8 8.8 8.8h61.5V78.2c0-.6.4-1 1-1h101.9c.6 0 1 .4 1 1v12.9h61.5c4.9 0 8.8-4 8.8-8.8V47.7c0-4.9-4-8.8-8.8-8.8h-70.3c-.6 0-1-.4-1-1s.4-1 1-1h70.3c6 0 10.8 4.9 10.8 10.8v34.6c.1 6-4.7 10.8-10.7 10.8z" class="st5"/><path d="M89.4 107.5h84.7v12.3H89.4z" class="st6"/><path d="M89.4 150.6h84.7v12.3H89.4zM153.5 172.2h20.6v12.3h-20.6z" class="st3"/><path d="M220.5 200.6H61.4c-.6 0-1-.4-1-1s.4-1 1-1h158.1v-11.5h-38.9v5.8c0 .6-.4 1-1 1H77.7c-.6 0-1-.4-1-1v-5.8H37.9v11.5h15.7c.6 0 1 .4 1 1s-.4 1-1 1H36.9c-.6 0-1-.4-1-1v-13.5c0-.6.4-1 1-1h40.9c.6 0 1 .4 1 1v5.8h99.9v-5.8c0-.6.4-1 1-1h40.9c.6 0 1 .4 1 1v13.5c-.1.6-.5 1-1.1 1z" class="st5"/><path d="M36.9 152.8h40.9v13.6H36.9z" class="st3"/><path d="M77.7 167.3H36.9c-.6 0-1-.4-1-1v-13.6c0-.6.4-1 1-1h40.9c.6 0 1 .4 1 1v13.6c-.1.6-.5 1-1.1 1zm-39.8-2h38.9v-11.6H37.9v11.6zM220.5 167.3h-40.9c-.6 0-1-.4-1-1v-13.6c0-.6.4-1 1-1h40.9c.6 0 1 .4 1 1v13.6c0 .6-.4 1-1 1zm-39.8-2h38.9v-11.6h-38.9v11.6z" class="st5"/><path d="M31 219.1c-3.8 0-6.9-3.1-6.9-6.9v-88c0-.6.4-1 1-1s1 .4 1 1v88c0 2.7 2.2 4.9 4.9 4.9s4.9-2.2 4.9-4.9V93.1h-9.8v25.2c0 .6-.4 1-1 1s-1-.4-1-1V92.1c0-.6.4-1 1-1h11.8c.6 0 1 .4 1 1v120.1c0 3.8-3.1 6.9-6.9 6.9zM220.5 120.2c-.6 0-1-.4-1-1v-3.1c0-.6.4-1 1-1s1 .4 1 1v3.1c0 .5-.4 1-1 1z" class="st5"/><path d="M226.4 219.1c-3.8 0-6.9-3.1-6.9-6.9v-88c0-.6.4-1 1-1s1 .4 1 1v88c0 2.7 2.2 4.9 4.9 4.9s4.9-2.2 4.9-4.9V93.1h-9.8v15.5c0 .6-.4 1-1 1s-1-.4-1-1V92.1c0-.6.4-1 1-1h11.8c.6 0 1 .4 1 1v120.1c0 3.8-3.1 6.9-6.9 6.9z" class="st5"/><path d="M242.2 93.1h-39.6c-.6 0-1-.4-1-1V37.9c0-.6.4-1 1-1h39.6c6 0 10.8 4.9 10.8 10.8v34.6c0 6-4.8 10.8-10.8 10.8zm-38.6-2h38.6c4.9 0 8.8-4 8.8-8.8V47.7c0-4.9-4-8.8-8.8-8.8h-38.6v52.2zM54.8 93.1H15.2c-6 0-10.8-4.9-10.8-10.8V47.7c0-6 4.9-10.8 10.8-10.8h39.6c.6 0 1 .4 1 1v54.3c0 .5-.5.9-1 .9zM15.2 38.9c-4.9 0-8.8 4-8.8 8.8v34.6c0 4.9 4 8.8 8.8 8.8h38.6V38.9H15.2z" class="st5"/><path d="M226.4 80.9c-8.8 0-15.9-7.1-15.9-15.9s7.1-15.9 15.9-15.9 15.9 7.1 15.9 15.9-7.1 15.9-15.9 15.9zm0-29.8c-7.7 0-13.9 6.3-13.9 13.9 0 7.7 6.3 13.9 13.9 13.9s13.9-6.3 13.9-13.9c.1-7.7-6.2-13.9-13.9-13.9z" class="st5"/><path d="M232.4 54.4c4.6 1.3 8 5.6 8 10.6 0 6.1-4.9 11-11 11s-11-4.9-11-11c0-5.6 4.3-10.3 9.7-10.9l4.3.3z" class="st6"/><path d="M26.7 50.3H18v29.4h30.1V50.3H30.7z" class="st0"/><path d="M226.4 76.5c-6.3 0-11.5-5.2-11.5-11.5 0-5.8 4.4-10.8 10.2-11.4.3 0 .5.2.6.4 0 .3-.2.5-.4.6-5.3.6-9.3 5.1-9.3 10.4 0 5.8 4.7 10.5 10.5 10.5S237 70.8 237 65c0-4.7-3.1-8.8-7.6-10.1-.3-.1-.4-.4-.3-.6.1-.3.3-.4.6-.3 4.9 1.4 8.3 5.9 8.3 11.1-.1 6.2-5.2 11.4-11.6 11.4zM49.3 84.8H10.9c-.6 0-1-.4-1-1V46.2c0-.6.4-1 1-1h38.4c.6 0 1 .4 1 1v37.7c0 .5-.5.9-1 .9zm-37.4-2h36.4V47.2H11.9v35.6z" class="st5"/><path d="M45.1 80.2H15c-.3 0-.5-.2-.5-.5V50.3c0-.3.2-.5.5-.5h8.7c.3 0 .5.2.5.5s-.2.5-.5.5h-8.2v28.4h29.1V50.8H27.7c-.3 0-.5-.2-.5-.5s.2-.5.5-.5h17.4c.3 0 .5.2.5.5v29.4c0 .3-.2.5-.5.5zM188.8 93.1h-9.2c-.6 0-1-.4-1-1V79.2H78.7v12.9c0 .6-.4 1-1 1h-9.2c-.6 0-1-.4-1-1v-25c0-.6.4-1 1-1h120.3c.6 0 1 .4 1 1v25c0 .6-.4 1-1 1zm-8.1-2h7.2v-23H69.6v23h7.2V78.2c0-.6.4-1 1-1h101.9c.6 0 1 .4 1 1v12.9zM202.6 59H92.2c-.3 0-.5-.2-.5-.5s.2-.5.5-.5h110v-7.5H55.3V58H85c.3 0 .5.2.5.5s-.2.5-.5.5H54.8c-.3 0-.5-.2-.5-.5V50c0-.3.2-.5.5-.5h147.9c.3 0 .5.2.5.5v8.5c-.1.3-.3.5-.6.5z" class="st5"/><path d="M171 98.8h-34.7c-.3 0-.5-.2-.5-.5s.2-.5.5-.5h34.2V86.5H86.9v11.3h45.2c.3 0 .5.2.5.5s-.2.5-.5.5H86.4c-.3 0-.5-.2-.5-.5V86c0-.3.2-.5.5-.5H171c.3 0 .5.2.5.5v12.3c0 .3-.2.5-.5.5zM171 120.3H86.4c-.3 0-.5-.2-.5-.5v-12.3c0-.3.2-.5.5-.5H171c.3 0 .5.2.5.5v12.3c0 .3-.2.5-.5.5zm-84.1-1h83.7V108H86.9v11.3zM171 141.9H86.4c-.3 0-.5-.2-.5-.5v-12.3c0-.3.2-.5.5-.5h20.1c.3 0 .5.2.5.5s-.2.5-.5.5H86.9v11.3h83.7v-11.3h-58.8c-.3 0-.5-.2-.5-.5s.2-.5.5-.5H171c.3 0 .5.2.5.5v12.3c0 .3-.2.5-.5.5z" class="st5"/><path d="M86.4 150.6h84.7v12.3H86.4z" class="st6"/><path d="M171 163.4H86.4c-.3 0-.5-.2-.5-.5v-12.3c0-.3.2-.5.5-.5H171c.3 0 .5.2.5.5v12.3c0 .3-.2.5-.5.5zm-84.1-1h83.7v-11.3H86.9v11.3zM137.1 185H86.4c-.3 0-.5-.2-.5-.5v-12.3c0-.3.2-.5.5-.5h50.7c.3 0 .5.2.5.5v12.3c0 .3-.3.5-.5.5zm-50.2-1h49.7v-11.3H86.9V184z" class="st5"/><g><path d="M171 185h-20.6c-.3 0-.5-.2-.5-.5v-12.3c0-.3.2-.5.5-.5H171c.3 0 .5.2.5.5v12.3c0 .3-.2.5-.5.5zm-20-1h19.6v-11.3H151V184z" class="st5"/></g><g><path d="M21 74.6c-.1 0-.3 0-.4-.1-.2-.2-.2-.5 0-.7l18.2-18.2c.2-.2.5-.2.7 0s.2.5 0 .7L21.3 74.4c-.1.1-.2.2-.3.2z" class="st5"/></g><g><path d="M27 73.1c-.1 0-.3 0-.4-.1-.2-.2-.2-.5 0-.7l10.5-10.5c.2-.2.5-.2.7 0s.2.5 0 .7L27.4 72.9c-.1.1-.3.2-.4.2z" class="st5"/></g><g><path d="M163.8 24.5c-1.6 0-3-1.3-3-3s1.3-3 3-3 3 1.3 3 3-1.4 3-3 3zm0-4.9c-1.1 0-2 .9-2 2s.9 2 2 2 2-.9 2-2-.9-2-2-2z" class="st5"/></g><g><path d="M54.8 218.6c-1.6 0-3-1.3-3-3s1.3-3 3-3 3 1.3 3 3-1.4 3-3 3zm0-4.9c-1.1 0-2 .9-2 2s.9 2 2 2 2-.9 2-2-.9-2-2-2z" class="st6"/></g><g><path d="M197.2 218.9c-.1 0-.3-.1-.4-.1-.1-.1-.2-.3-.1-.5l.8-2.6-.8-2.6c-.1-.2 0-.4.1-.5.1-.1.3-.2.5-.1l2.6.8 2.6-.8c.2-.1.4 0 .5.1s.2.3.1.5l-.8 2.6.8 2.6c.1.2 0 .4-.1.5s-.3.2-.5.1l-1-.3c-.3-.1-.4-.4-.3-.6.1-.3.4-.4.6-.3h.1l-.5-1.8v-.3l.5-1.8-1.8.5h-.3l-1.8-.5.5 1.8v.3l-.5 1.8 1.8-.5c.3-.1.5.1.6.3.1.3-.1.5-.3.6l-2.7.8h-.2z" class="st5"/></g><g><path d="M197.4 131.2c-.1 0-.3-.1-.4-.1-.1-.1-.2-.3-.1-.5l.8-2.6-.8-2.6c-.1-.2 0-.4.1-.5s.3-.2.5-.1l2.6.8 2.6-.8c.2-.1.4 0 .5.1s.2.3.1.5l-.8 2.6.8 2.6c.1.2 0 .4-.1.5s-.3.2-.5.1l-1-.3c-.3-.1-.4-.4-.3-.6.1-.3.4-.4.6-.3h.1l-.5-1.8v-.3l.5-1.8-1.8.5h-.3l-1.8-.5.5 1.8v.3l-.5 1.8 1.8-.5c.3-.1.5.1.6.3.1.3-.1.5-.3.6l-2.7.8h-.2z" class="st1"/></g><g><path d="M131.7 210c-.3 0-.5-.2-.5-.5v-2.4c0-.3.2-.5.5-.5s.5.2.5.5v2.4c0 .3-.2.5-.5.5zM131.7 215.9c-.3 0-.5-.2-.5-.5V213c0-.3.2-.5.5-.5s.5.2.5.5v2.4c0 .3-.2.5-.5.5zM135.8 211.7h-2.4c-.3 0-.5-.2-.5-.5s.2-.5.5-.5h2.4c.3 0 .5.2.5.5s-.2.5-.5.5zM130 211.7h-2.4c-.3 0-.5-.2-.5-.5s.2-.5.5-.5h2.4c.3 0 .5.2.5.5s-.2.5-.5.5z" class="st6"/></g><g><path d="M86.4 28.4c-.3 0-.5-.2-.5-.5v-2.4c0-.3.2-.5.5-.5s.5.2.5.5v2.4c0 .3-.3.5-.5.5zM86.4 34.3c-.3 0-.5-.2-.5-.5v-2.4c0-.3.2-.5.5-.5s.5.2.5.5v2.4c0 .2-.3.5-.5.5zM90.5 30.1h-2.4c-.3 0-.5-.2-.5-.5s.2-.5.5-.5h2.4c.3 0 .5.2.5.5s-.2.5-.5.5zM84.7 30.1h-2.4c-.3 0-.5-.2-.5-.5s.2-.5.5-.5h2.4c.3 0 .5.2.5.5s-.3.5-.5.5z" class="st1"/></g><g><path d="M52.3 120.3c-.3 0-.5-.2-.5-.5v-2.4c0-.3.2-.5.5-.5s.5.2.5.5v2.4c0 .3-.2.5-.5.5zM52.3 126.2c-.3 0-.5-.2-.5-.5v-2.4c0-.3.2-.5.5-.5s.5.2.5.5v2.4c0 .3-.2.5-.5.5zM56.4 122H54c-.3 0-.5-.2-.5-.5s.2-.5.5-.5h2.4c.3 0 .5.2.5.5s-.2.5-.5.5zM50.6 122h-2.4c-.3 0-.5-.2-.5-.5s.2-.5.5-.5h2.4c.3 0 .5.2.5.5s-.2.5-.5.5z" class="st3"/></g></svg>

<svg xmlns="http://www.w3.org/2000/svg" id="Layer_1" x="0" y="0" enable-background="new 0 0 256 256" version="1.1" viewBox="0 0 256 256" xml:space="preserve"><style>.st0{fill:#DBFDFF;}
	.st1{fill:#FEBE7F;}
	.st2{fill:#FFFFFF;}
	.st3{fill:#9FEAFF;}
	.st4{fill:#FFFFED;}
	.st5{fill:#48386A;}
	.st6{fill:#FF8584;}</style><path d="M245.6 125.3c0-19.7-11.2-36.7-27.6-45 1.5-4.8 2.3-9.9 2.3-15.2 0-27.9-22.6-50.5-50.5-50.5-14.2 0-27 5.8-36.2 15.2-9.2-9.4-22-15.2-36.2-15.2C69.6 14.5 47 37.1 47 65c0 1.8.1 3.6.3 5.4-22.9 4.8-40 25.1-40 49.4 0 12.7 4.7 24.2 12.4 33.1C12 161.8 7.3 173.3 7.3 186c0 27.9 22.6 50.5 50.5 50.5 16.7 0 31.5-8.1 40.7-20.6 9.3 11 23.1 17.9 38.6 17.9 11.8 0 22.7-4.1 31.3-10.9 7 3.7 15 5.8 23.5 5.8 27.9 0 50.5-22.6 50.5-50.5 0-8.7-2.2-16.8-6-24 5.8-8.1 9.2-18.1 9.2-28.9zM95.9 152.9l.6-.6c.2.1.3.3.5.4-.2.2-.4.5-.6.7-.2-.1-.3-.3-.5-.5z" class="st0"/><path d="M56.5 199.6 39.9 199.6 39.9 186.1 80.7 186.1 80.7 192.8 182.7 192.8 182.7 186.1 223.5 186.1 223.5 199.6 64.4 199.6z" class="st1"/><path d="M179.7 174.7 179.7 78.2 77.7 78.2 77.7 192.8 126.3 192.8 127.7 192.8 179.7 192.8 179.7 181z" class="st2"/><path d="M171.9 37.9h70.3c5.4 0 9.8 4.4 9.8 9.8v34.6c0 5.4-4.4 9.8-9.8 9.8h-62.5V78.2h-102v13.9H15.2c-5.4 0-9.8-4.4-9.8-9.8V47.7c0-5.4 4.4-9.8 9.8-9.8h156.7z" class="st2"/><path d="M191.8 67.2 191.8 92.1 182.7 92.1 182.7 78.2 80.7 78.2 80.7 92.1 71.6 92.1 71.6 67.2z" class="st3"/><path d="M179.7 174.7 179.7 78.2 77.7 78.2 77.7 192.8 126.3 192.8 127.7 192.8 179.7 192.8 179.7 181z" class="st4"/><path d="M179.7 193.8h-102c-.6 0-1-.4-1-1V78.2c0-.6.4-1 1-1h101.9c.6 0 1 .4 1 1v96.5c0 .6-.4 1-1 1s-1-.4-1-1V79.2H78.7v112.6h99.9V181c0-.6.4-1 1-1s1 .4 1 1v11.8c.1.6-.4 1-.9 1z" class="st5"/><path d="M36.9 152.8H77.8V166.4H36.9z" class="st2"/><path d="M179.7 152.8H220.6V166.4H179.7z" class="st3"/><path d="M25.1 118.3V92.1h11.8v120.1c0 3.3-2.6 5.9-5.9 5.9-3.3 0-5.9-2.6-5.9-5.9v-93.9zM220.5 108.6V92.1h11.8v120.1c0 3.3-2.6 5.9-5.9 5.9-3.3 0-5.9-2.6-5.9-5.9V108.6z" class="st2"/><path d="M252 47.7v34.6c0 5.4-4.4 9.8-9.8 9.8h-39.6V37.9h39.6c5.4 0 9.8 4.4 9.8 9.8zM5.4 82.3V47.7c0-5.4 4.4-9.8 9.8-9.8h39.6v54.3H15.2c-5.4-.1-9.8-4.5-9.8-9.9z" class="st4"/><path d="M88 58.5 57.8 58.5 57.8 50.1 205.6 50.1 205.6 58.5 95.2 58.5z" class="st1"/><path d="M242.2 93.1h-62.5c-.6 0-1-.4-1-1V79.2h-100v12.9c0 .6-.4 1-1 1H15.2c-6 0-10.8-4.9-10.8-10.8V47.7c0-6 4.9-10.8 10.8-10.8h150.7c.6 0 1 .4 1 1s-.4 1-1 1H15.2c-4.9 0-8.8 4-8.8 8.8v34.6c0 4.9 4 8.8 8.8 8.8h61.5V78.2c0-.6.4-1 1-1h101.9c.6 0 1 .4 1 1v12.9h61.5c4.9 0 8.8-4 8.8-8.8V47.7c0-4.9-4-8.8-8.8-8.8h-70.3c-.6 0-1-.4-1-1s.4-1 1-1h70.3c6 0 10.8 4.9 10.8 10.8v34.6c.1 6-4.7 10.8-10.7 10.8z" class="st5"/><path d="M89.4 107.5H174.10000000000002V119.8H89.4z" class="st6"/><path d="M89.4 150.6H174.10000000000002V162.9H89.4z" class="st3"/><path d="M153.5 172.2H174.1V184.5H153.5z" class="st3"/><path d="M220.5 200.6H61.4c-.6 0-1-.4-1-1s.4-1 1-1h158.1v-11.5h-38.9v5.8c0 .6-.4 1-1 1H77.7c-.6 0-1-.4-1-1v-5.8H37.9v11.5h15.7c.6 0 1 .4 1 1s-.4 1-1 1H36.9c-.6 0-1-.4-1-1v-13.5c0-.6.4-1 1-1h40.9c.6 0 1 .4 1 1v5.8h99.9v-5.8c0-.6.4-1 1-1h40.9c.6 0 1 .4 1 1v13.5c-.1.6-.5 1-1.1 1z" class="st5"/><path d="M36.9 152.8H77.8V166.4H36.9z" class="st3"/><path d="M77.7 167.3H36.9c-.6 0-1-.4-1-1v-13.6c0-.6.4-1 1-1h40.9c.6 0 1 .4 1 1v13.6c-.1.6-.5 1-1.1 1zm-39.8-2h38.9v-11.6H37.9v11.6zM220.5 167.3h-40.9c-.6 0-1-.4-1-1v-13.6c0-.6.4-1 1-1h40.9c.6 0 1 .4 1 1v13.6c0 .6-.4 1-1 1zm-39.8-2h38.9v-11.6h-38.9v11.6z" class="st5"/><path d="M31 219.1c-3.8 0-6.9-3.1-6.9-6.9v-88c0-.6.4-1 1-1s1 .4 1 1v88c0 2.7 2.2 4.9 4.9 4.9s4.9-2.2 4.9-4.9V93.1h-9.8v25.2c0 .6-.4 1-1 1s-1-.4-1-1V92.1c0-.6.4-1 1-1h11.8c.6 0 1 .4 1 1v120.1c0 3.8-3.1 6.9-6.9 6.9zM220.5 120.2c-.6 0-1-.4-1-1v-3.1c0-.6.4-1 1-1s1 .4 1 1v3.1c0 .5-.4 1-1 1z" class="st5"/><path d="M226.4 219.1c-3.8 0-6.9-3.1-6.9-6.9v-88c0-.6.4-1 1-1s1 .4 1 1v88c0 2.7 2.2 4.9 4.9 4.9s4.9-2.2 4.9-4.9V93.1h-9.8v15.5c0 .6-.4 1-1 1s-1-.4-1-1V92.1c0-.6.4-1 1-1h11.8c.6 0 1 .4 1 1v120.1c0 3.8-3.1 6.9-6.9 6.9z" class="st5"/><path d="M242.2 93.1h-39.6c-.6 0-1-.4-1-1V37.9c0-.6.4-1 1-1h39.6c6 0 10.8 4.9 10.8 10.8v34.6c0 6-4.8 10.8-10.8 10.8zm-38.6-2h38.6c4.9 0 8.8-4 8.8-8.8V47.7c0-4.9-4-8.8-8.8-8.8h-38.6v52.2zM54.8 93.1H15.2c-6 0-10.8-4.9-10.8-10.8V47.7c0-6 4.9-10.8 10.8-10.8h39.6c.6 0 1 .4 1 1v54.3c0 .5-.5.9-1 .9zM15.2 38.9c-4.9 0-8.8 4-8.8 8.8v34.6c0 4.9 4 8.8 8.8 8.8h38.6V38.9H15.2z" class="st5"/><path d="M226.4 80.9c-8.8 0-15.9-7.1-15.9-15.9s7.1-15.9 15.9-15.9 15.9 7.1 15.9 15.9-7.1 15.9-15.9 15.9zm0-29.8c-7.7 0-13.9 6.3-13.9 13.9 0 7.7 6.3 13.9 13.9 13.9s13.9-6.3 13.9-13.9c.1-7.7-6.2-13.9-13.9-13.9z" class="st5"/><path d="M232.4 54.4c4.6 1.3 8 5.6 8 10.6 0 6.1-4.9 11-11 11s-11-4.9-11-11c0-5.6 4.3-10.3 9.7-10.9l4.3.3z" class="st6"/><path d="M26.7 50.3 18 50.3 18 74 18 79.7 48.1 79.7 48.1 74 48.1 50.3 30.7 50.3z" class="st0"/><path d="M226.4 76.5c-6.3 0-11.5-5.2-11.5-11.5 0-5.8 4.4-10.8 10.2-11.4.3 0 .5.2.6.4 0 .3-.2.5-.4.6-5.3.6-9.3 5.1-9.3 10.4 0 5.8 4.7 10.5 10.5 10.5S237 70.8 237 65c0-4.7-3.1-8.8-7.6-10.1-.3-.1-.4-.4-.3-.6.1-.3.3-.4.6-.3 4.9 1.4 8.3 5.9 8.3 11.1-.1 6.2-5.2 11.4-11.6 11.4zM49.3 84.8H10.9c-.6 0-1-.4-1-1V46.2c0-.6.4-1 1-1h38.4c.6 0 1 .4 1 1v37.7c0 .5-.5.9-1 .9zm-37.4-2h36.4V47.2H11.9v35.6z" class="st5"/><path d="M45.1 80.2H15c-.3 0-.5-.2-.5-.5V50.3c0-.3.2-.5.5-.5h8.7c.3 0 .5.2.5.5s-.2.5-.5.5h-8.2v28.4h29.1V50.8H27.7c-.3 0-.5-.2-.5-.5s.2-.5.5-.5h17.4c.3 0 .5.2.5.5v29.4c0 .3-.2.5-.5.5zM188.8 93.1h-9.2c-.6 0-1-.4-1-1V79.2H78.7v12.9c0 .6-.4 1-1 1h-9.2c-.6 0-1-.4-1-1v-25c0-.6.4-1 1-1h120.3c.6 0 1 .4 1 1v25c0 .6-.4 1-1 1zm-8.1-2h7.2v-23H69.6v23h7.2V78.2c0-.6.4-1 1-1h101.9c.6 0 1 .4 1 1v12.9zM202.6 59H92.2c-.3 0-.5-.2-.5-.5s.2-.5.5-.5h110v-7.5H55.3V58H85c.3 0 .5.2.5.5s-.2.5-.5.5H54.8c-.3 0-.5-.2-.5-.5V50c0-.3.2-.5.5-.5h147.9c.3 0 .5.2.5.5v8.5c-.1.3-.3.5-.6.5z" class="st5"/><path d="M171 98.8h-34.7c-.3 0-.5-.2-.5-.5s.2-.5.5-.5h34.2V86.5H86.9v11.3h45.2c.3 0 .5.2.5.5s-.2.5-.5.5H86.4c-.3 0-.5-.2-.5-.5V86c0-.3.2-.5.5-.5H171c.3 0 .5.2.5.5v12.3c0 .3-.2.5-.5.5zM171 120.3H86.4c-.3 0-.5-.2-.5-.5v-12.3c0-.3.2-.5.5-.5H171c.3 0 .5.2.5.5v12.3c0 .3-.2.5-.5.5zm-84.1-1h83.7V108H86.9v11.3zM171 141.9H86.4c-.3 0-.5-.2-.5-.5v-12.3c0-.3.2-.5.5-.5h20.1c.3 0 .5.2.5.5s-.2.5-.5.5H86.9v11.3h83.7v-11.3h-58.8c-.3 0-.5-.2-.5-.5s.2-.5.5-.5H171c.3 0 .5.2.5.5v12.3c0 .3-.2.5-.5.5z" class="st5"/><path d="M86.4 150.6H171.10000000000002V162.9H86.4z" class="st6"/><path d="M171 163.4H86.4c-.3 0-.5-.2-.5-.5v-12.3c0-.3.2-.5.5-.5H171c.3 0 .5.2.5.5v12.3c0 .3-.2.5-.5.5zm-84.1-1h83.7v-11.3H86.9v11.3zM137.1 185H86.4c-.3 0-.5-.2-.5-.5v-12.3c0-.3.2-.5.5-.5h50.7c.3 0 .5.2.5.5v12.3c0 .3-.3.5-.5.5zm-50.2-1h49.7v-11.3H86.9V184z" class="st5"/><g><path d="M171 185h-20.6c-.3 0-.5-.2-.5-.5v-12.3c0-.3.2-.5.5-.5H171c.3 0 .5.2.5.5v12.3c0 .3-.2.5-.5.5zm-20-1h19.6v-11.3H151V184z" class="st5"/></g><g><path d="M21 74.6c-.1 0-.3 0-.4-.1-.2-.2-.2-.5 0-.7l18.2-18.2c.2-.2.5-.2.7 0s.2.5 0 .7L21.3 74.4c-.1.1-.2.2-.3.2z" class="st5"/></g><g><path d="M27 73.1c-.1 0-.3 0-.4-.1-.2-.2-.2-.5 0-.7l10.5-10.5c.2-.2.5-.2.7 0s.2.5 0 .7L27.4 72.9c-.1.1-.3.2-.4.2z" class="st5"/></g><g><path d="M163.8 24.5c-1.6 0-3-1.3-3-3s1.3-3 3-3 3 1.3 3 3-1.4 3-3 3zm0-4.9c-1.1 0-2 .9-2 2s.9 2 2 2 2-.9 2-2-.9-2-2-2z" class="st5"/></g><g><path d="M54.8 218.6c-1.6 0-3-1.3-3-3s1.3-3 3-3 3 1.3 3 3-1.4 3-3 3zm0-4.9c-1.1 0-2 .9-2 2s.9 2 2 2 2-.9 2-2-.9-2-2-2z" class="st6"/></g><g><path d="M197.2 218.9c-.1 0-.3-.1-.4-.1-.1-.1-.2-.3-.1-.5l.8-2.6-.8-2.6c-.1-.2 0-.4.1-.5.1-.1.3-.2.5-.1l2.6.8 2.6-.8c.2-.1.4 0 .5.1s.2.3.1.5l-.8 2.6.8 2.6c.1.2 0 .4-.1.5s-.3.2-.5.1l-1-.3c-.3-.1-.4-.4-.3-.6.1-.3.4-.4.6-.3h.1l-.5-1.8v-.3l.5-1.8-1.8.5h-.3l-1.8-.5.5 1.8v.3l-.5 1.8 1.8-.5c.3-.1.5.1.6.3.1.3-.1.5-.3.6l-2.7.8h-.2z" class="st5"/></g><g><path d="M197.4 131.2c-.1 0-.3-.1-.4-.1-.1-.1-.2-.3-.1-.5l.8-2.6-.8-2.6c-.1-.2 0-.4.1-.5s.3-.2.5-.1l2.6.8 2.6-.8c.2-.1.4 0 .5.1s.2.3.1.5l-.8 2.6.8 2.6c.1.2 0 .4-.1.5s-.3.2-.5.1l-1-.3c-.3-.1-.4-.4-.3-.6.1-.3.4-.4.6-.3h.1l-.5-1.8v-.3l.5-1.8-1.8.5h-.3l-1.8-.5.5 1.8v.3l-.5 1.8 1.8-.5c.3-.1.5.1.6.3.1.3-.1.5-.3.6l-2.7.8h-.2z" class="st1"/></g><g><path d="M131.7 210c-.3 0-.5-.2-.5-.5v-2.4c0-.3.2-.5.5-.5s.5.2.5.5v2.4c0 .3-.2.5-.5.5zM131.7 215.9c-.3 0-.5-.2-.5-.5V213c0-.3.2-.5.5-.5s.5.2.5.5v2.4c0 .3-.2.5-.5.5zM135.8 211.7h-2.4c-.3 0-.5-.2-.5-.5s.2-.5.5-.5h2.4c.3 0 .5.2.5.5s-.2.5-.5.5zM130 211.7h-2.4c-.3 0-.5-.2-.5-.5s.2-.5.5-.5h2.4c.3 0 .5.2.5.5s-.2.5-.5.5z" class="st6"/></g><g><path d="M86.4 28.4c-.3 0-.5-.2-.5-.5v-2.4c0-.3.2-.5.5-.5s.5.2.5.5v2.4c0 .3-.3.5-.5.5zM86.4 34.3c-.3 0-.5-.2-.5-.5v-2.4c0-.3.2-.5.5-.5s.5.2.5.5v2.4c0 .2-.3.5-.5.5zM90.5 30.1h-2.4c-.3 0-.5-.2-.5-.5s.2-.5.5-.5h2.4c.3 0 .5.2.5.5s-.2.5-.5.5zM84.7 30.1h-2.4c-.3 0-.5-.2-.5-.5s.2-.5.5-.5h2.4c.3 0 .5.2.5.5s-.3.5-.5.5z" class="st1"/></g><g><path d="M52.3 120.3c-.3 0-.5-.2-.5-.5v-2.4c0-.3.2-.5.5-.5s.5.2.5.5v2.4c0 .3-.2.5-.5.5zM52.3 126.2c-.3 0-.5-.2-.5-.5v-2.4c0-.3.2-.5.5-.5s.5.2.5.5v2.4c0 .3-.2.5-.5.5zM56.4 122H54c-.3 0-.5-.2-.5-.5s.2-.5.5-.5h2.4c.3 0 .5.2.5.5s-.2.5-.5.5zM50.6 122h-2.4c-.3 0-.5-.2-.5-.5s.2-.5.5-.5h2.4c.3 0 .5.2.5.5s-.2.5-.5.5z" class="st3"/></g></svg>
